src/app/assets/svg/qr-code.svg

<svg version="1.1" id="Layer_1" xmlns="http://www.w3.org/2000/svg" x="0" y="0" viewBox="0 0 24 24" xml:space="preserve"><path fill="none" stroke="currentColor" stroke-width="1.5" stroke-linecap="round" stroke-linejoin="round" d="M.75 12.75v1.5h1.5M.75.75h6v6h-6zm16.5 0h6v6h-6zM.75 17.25h6v6h-6zM12 .75h2.25m-4.5 0v3H12m2.25 0v3h-4.5m-9 3h6v1.5m-1.5 3h1.5m16.5 9h-3v-3h3v-3h-3m-6 6h-4.5v-6m7.5 0v6m-4.5-6h1.5v3h-1.5m-3-7.5v1.5h1.5m3 0h3m-1.5 0v-3m-6-1.5h3v1.5m10.5-1.5v1.5m0 2.25v.75m-4.5-4.5v1.5h1.5v2.25"/></svg>

<svg version="1.1" id="Layer_1" xmlns="http://www.w3.org/2000/svg" x="0" y="0" viewBox="0 0 24 24" xml:space="preserve"><path fill="none" stroke="currentColor" stroke-width="1.5" stroke-linecap="round" stroke-linejoin="round" d="M.75 12.75v1.5h1.5M.75.75h6v6h-6zM17.25.75h6v6h-6zM.75 17.25h6v6h-6zM12 .75h2.25M9.75.75v3H12M14.25 3.75v3h-4.5M.75 9.75h6v1.5M5.25 14.25h1.5M23.25 23.25h-3v-3h3v-3h-3M14.25 23.25h-4.5v-6M17.25 17.25v6M12.75 17.25h1.5v3h-1.5M9.75 12.75v1.5h1.5M14.25 14.25h3M15.75 14.25v-3M9.75 9.75h3v1.5M23.25 9.75v1.5M23.25 13.5v.75M18.75 9.75v1.5h1.5v2.25"/></svg>
